X: 46
T:Sist i \o{}ykt'n, vals (Jostein S\o{}rb\o{}en)
M:3/4
L:1/4
C:Hallingdal Kraftlag
K:C
E|E>DC|FED|GAB|c3|\
FAc|d2c|BG>G|GAB|\
c~GE|c~BA|G2F|E2E|\
D>EF|G,A,B,|
C>CC|C2:|\
|:G|Ge/d/ c/B/|Af/e/ d/c/|Bcd|c3|\
f~cA|FA>A|~BG>G|GAB|\
ce/d/ c/B/|Af/e/ d/c/|Bcd|
c3|A>Bc|dcB|c>cc|c2:|\
L:1/8
|:e2|ge ce ge|gd Bd gd|ec Ac ec|ec Ac ec|\
B3cd2|dc B2 Bd|
c2cd e2|e>d cd ec|\
ge ce ge|gd Bd gd|ec Ac ec|ec Ac ec|\
B2Bcd2|dc B2Bd|c2cd eg|c'4:|
